symbols/web/reset_tv/materialsymbolsrounded/reset_tv_wght500_48px.svg

<svg xmlns="http://www.w3.org/2000/svg" height="48" width="48"><path d="M18.25 42.45q-.7 0-1.2-.5t-.5-1.2V38H7.1q-1.4 0-2.4-1t-1-2.4V9.1q0-1.4 1-2.4t2.4-1h33.8q1.4 0 2.4 1t1 2.4v6.45q0 .75-.5 1.25t-1.2.5q-.75 0-1.225-.5-.475-.5-.475-1.25V9.1H7.1v25.5h33.8V23.4H24.5l3.35 3.3q.45.5.45 1.1 0 .6-.45 1.1-.5.45-1.1.45-.6 0-1.1-.45l-5.9-5.85q-.3-.3-.4-.575-.1-.275-.1-.625t.1-.625q.1-.275.4-.575l5.9-5.9q.5-.45 1.1-.45.6 0 1.1.45.45.5.45 1.1 0 .6-.45 1.1L24.5 20.3h16.4q1.35 0 2.375 1.025T44.3 23.7v10.9q0 1.4-1 2.4t-2.4 1h-9.45v2.75q0 .7-.5 1.2t-1.2.5Zm7.45-20.6Z"/></svg>

<svg xmlns="http://www.w3.org/2000/svg" height="48" width="48"><path d="M18.25 42.45Q17.55 42.45 17.05 41.95Q16.55 41.45 16.55 40.75V38H7.1Q5.7 38 4.7 37Q3.7 36 3.7 34.6V9.1Q3.7 7.7 4.7 6.7Q5.7 5.7 7.1 5.7H40.9Q42.3 5.7 43.3 6.7Q44.3 7.7 44.3 9.1V15.55Q44.3 16.3 43.8 16.8Q43.3 17.3 42.6 17.3Q41.85 17.3 41.375 16.8Q40.9 16.3 40.9 15.55V9.1Q40.9 9.1 40.9 9.1Q40.9 9.1 40.9 9.1H7.1Q7.1 9.1 7.1 9.1Q7.1 9.1 7.1 9.1V34.6Q7.1 34.6 7.1 34.6Q7.1 34.6 7.1 34.6H40.9Q40.9 34.6 40.9 34.6Q40.9 34.6 40.9 34.6V23.4Q40.9 23.4 40.9 23.4Q40.9 23.4 40.9 23.4H24.5L27.85 26.7Q28.3 27.2 28.3 27.8Q28.3 28.4 27.85 28.9Q27.35 29.35 26.75 29.35Q26.15 29.35 25.65 28.9L19.75 23.05Q19.45 22.75 19.35 22.475Q19.25 22.2 19.25 21.85Q19.25 21.5 19.35 21.225Q19.45 20.95 19.75 20.65L25.65 14.75Q26.15 14.3 26.75 14.3Q27.35 14.3 27.85 14.75Q28.3 15.25 28.3 15.85Q28.3 16.45 27.85 16.95L24.5 20.3H40.9Q42.25 20.3 43.275 21.325Q44.3 22.35 44.3 23.7V34.6Q44.3 36 43.3 37Q42.3 38 40.9 38H31.45V40.75Q31.45 41.45 30.95 41.95Q30.45 42.45 29.75 42.45ZM25.7 21.85Q25.7 21.85 25.7 21.85Q25.7 21.85 25.7 21.85Q25.7 21.85 25.7 21.85Q25.7 21.85 25.7 21.85Q25.7 21.85 25.7 21.85Q25.7 21.85 25.7 21.85Q25.7 21.85 25.7 21.85Q25.7 21.85 25.7 21.85Q25.7 21.85 25.7 21.85Q25.7 21.85 25.7 21.85Q25.7 21.85 25.7 21.85Q25.7 21.85 25.7 21.85Q25.7 21.85 25.7 21.85Q25.7 21.85 25.7 21.85Q25.7 21.85 25.7 21.85Q25.7 21.85 25.7 21.85Q25.7 21.85 25.7 21.85Q25.7 21.85 25.7 21.85Z"/></svg>
